static/assets/img/avatars/envato.svg

<svg fill="none" height="128" viewBox="0 0 128 128" width="128" xmlns="http://www.w3.org/2000/svg"><circle cx="64" cy="64" fill="#81b441" r="64"/><path d="m83.0305 33.4702c-1.8072-.9943-6.9833-.3777-13.2033 1.5282-10.8829 7.3635-20.0727 18.2132-20.7131 35.6362-.114.4168-1.1887-.0608-1.4037-.1867-2.9389-5.5746-4.1057-11.4445-1.6493-19.9151.4562-.7554-1.0396-1.6845-1.3072-1.4197-.5351.5297-2.781 2.9002-4.2768 5.4575-7.3956 12.6906-2.5573 28.9587 10.3785 36.079 3.0757 1.6949 6.4587 2.7735 9.9556 3.1743s7.0394.1159 10.4251-.8384 6.5483-2.5593 9.3073-4.7233c2.759-2.1641 5.0603-4.8449 6.7725-7.8893 8.3344-14.7702.5966-44.2022-4.2856-46.9027z" fill="#fff"/></svg>

<svg width="128" height="128" viewBox="0 0 128 128" fill="none" xmlns="http://www.w3.org/2000/svg">
<circle cx="64" cy="64" r="64" fill="#81B441"/>
<path d="M83.0305 33.4702C81.2233 32.4759 76.0472 33.0925 69.8272 34.9984C58.9443 42.3619 49.7545 53.2116 49.1141 70.6346C49.0001 71.0514 47.9254 70.5738 47.7104 70.4479C44.7715 64.8733 43.6047 59.0034 46.0611 50.5328C46.5173 49.7774 45.0215 48.8483 44.7539 49.1131C44.2188 49.6428 41.9729 52.0133 40.4771 54.5706C33.0815 67.2612 37.9198 83.5293 50.8556 90.6496C53.9313 92.3445 57.3143 93.4231 60.8112 93.8239C64.3081 94.2247 67.8506 93.9398 71.2363 92.9855C74.622 92.0312 77.7846 90.4262 80.5436 88.2622C83.3026 86.0981 85.6039 83.4173 87.3161 80.3729C95.6505 65.6027 87.9127 36.1707 83.0305 33.4702V33.4702Z" fill="white"/>
</svg>
